assets/orcid.logo.icon.svg

<?xml version="1.0" encoding="UTF-8"?>
<svg width="72px" height="72px" viewBox="0 0 72 72" version="1.1"
    xmlns="http://www.w3.org/2000/svg"
    xmlns:xlink="http://www.w3.org/1999/xlink">
    <!-- Generator: sketchtool 53.1 (72631) - https://sketchapp.com -->
    <title>Orcid logo</title>
    <g id="Symbols" stroke="none" stroke-width="1" fill="none" fill-rule="evenodd">
        <g id="hero" transform="translate(-924.000000, -72.000000)" fill-rule="nonzero">
            <g id="Group-4">
                <g id="vector_iD_icon" transform="translate(924.000000, 72.000000)">
                    <path d="M72,36 C72,55.884375 55.884375,72 36,72 C16.115625,72 0,55.884375 0,36 C0,16.115625 16.115625,0 36,0 C55.884375,0 72,16.115625 72,36 Z" id="Path" fill="#A6CE39"></path>
                    <g id="Group" transform="translate(18.868966, 12.910345)" fill="#FFFFFF">
                        <polygon id="Path" points="5.03734929 39.1250878 0.695429861 39.1250878 0.695429861 9.14431787 5.03734929 9.14431787 5.03734929 22.6930505 5.03734929 39.1250878"></polygon>
                        <path d="M11.409257,9.14431787 L23.1380784,9.14431787 C34.303014,9.14431787 39.2088191,17.0664074 39.2088191,24.1486995 C39.2088191,31.846843 33.1470485,39.1530811 23.1944669,39.1530811 L11.409257,39.1530811 L11.409257,9.14431787 Z M15.7511765,35.2620194 L22.6587756,35.2620194 C32.49858,35.2620194 34.7541226,27.8438084 34.7541226,24.1486995 C34.7541226,18.1301509 30.8915059,13.0353795 22.4332213,13.0353795 L15.7511765,13.0353795 L15.7511765,35.2620194 Z" id="Shape"></path>
                        <path d="M5.71401206,2.90182329 C5.71401206,4.441452 4.44526937,5.72914146 2.86638958,5.72914146 C1.28750978,5.72914146 0.0187670918,4.441452 0.0187670918,2.90182329 C0.0187670918,1.33420133 1.28750978,0.0745051096 2.86638958,0.0745051096 C4.44526937,0.0745051096 5.71401206,1.36219458 5.71401206,2.90182329 Z" id="Path"></path>
                    </g>
                </g>
            </g>
        </g>
    </g>
</svg>

<?xml version="1.0" encoding="UTF-8" standalone="no"?>
<svg
   width="40"
   height="40"
   viewBox="0 0 40 40"
   version="1.1"
   id="svg1"
   sodipodi:docname="orcid.logo.icon.svg"
   inkscape:version="1.3.2 (091e20e, 2023-11-25)"
   xmlns:inkscape="http://www.inkscape.org/namespaces/inkscape"
   xmlns:sodipodi="http://sodipodi.sourceforge.net/DTD/sodipodi-0.dtd"
   xmlns="http://www.w3.org/2000/svg"
   xmlns:svg="http://www.w3.org/2000/svg"
   xmlns:rdf="http://www.w3.org/1999/02/22-rdf-syntax-ns#"
   xmlns:cc="http://creativecommons.org/ns#"
   xmlns:dc="http://purl.org/dc/elements/1.1/">
  <defs
     id="defs1" />
  <sodipodi:namedview
     id="namedview1"
     pagecolor="#ffffff"
     bordercolor="#000000"
     borderopacity="0.25"
     inkscape:showpageshadow="2"
     inkscape:pageopacity="0.0"
     inkscape:pagecheckerboard="0"
     inkscape:deskcolor="#d1d1d1"
     inkscape:zoom="3.2777778"
     inkscape:cx="36"
     inkscape:cy="36"
     inkscape:window-width="1312"
     inkscape:window-height="449"
     inkscape:window-x="0"
     inkscape:window-y="38"
     inkscape:window-maximized="0"
     inkscape:current-layer="svg1" />
  <!-- Generator: sketchtool 53.1 (72631) - https://sketchapp.com -->
  <title
     id="title1">Orcid logo</title>
  <g
     id="Symbols"
     stroke="none"
     stroke-width="1"
     fill="none"
     fill-rule="evenodd"
     transform="matrix(0.5,0,0,0.5,2.1355932,2.1355932)">
    <g
       id="hero"
       transform="translate(-924,-72)"
       fill-rule="nonzero">
      <g
         id="Group-4">
        <g
           id="vector_iD_icon"
           transform="translate(924,72)">
          <path
             d="M 72,36 C 72,55.884375 55.884375,72 36,72 16.115625,72 0,55.884375 0,36 0,16.115625 16.115625,0 36,0 55.884375,0 72,16.115625 72,36 Z"
             id="Path"
             fill="#a6ce39" />
          <g
             id="Group"
             transform="translate(18.868966,12.910345)"
             fill="#ffffff">
            <polygon
               id="polygon1"
               points="5.0373493,9.1443179 5.0373493,22.69305 5.0373493,39.125088 0.69542986,39.125088 0.69542986,9.1443179 " />
            <path
               d="m 11.409257,9.1443179 h 11.728821 c 11.164936,0 16.070741,7.9220891 16.070741,15.0043811 0,7.698144 -6.061771,15.004382 -16.014352,15.004382 h -11.78521 z m 4.34192,26.1177011 h 6.907599 c 9.839804,0 12.095347,-7.418211 12.095347,-11.11332 0,-6.018548 -3.862617,-11.11332 -12.320902,-11.11332 h -6.682044 z"
               id="Shape" />
            <path
               d="m 5.7140121,2.9018233 c 0,1.5396287 -1.2687427,2.8273182 -2.8476225,2.8273182 -1.5788798,0 -2.84762251,-1.2876895 -2.84762251,-2.8273182 0,-1.567622 1.26874271,-2.82731819 2.84762251,-2.82731819 1.5788798,0 2.8476225,1.28768949 2.8476225,2.82731819 z"
               id="path1" />
          </g>
        </g>
      </g>
    </g>
  </g>
  <metadata
     id="metadata1">
    <rdf:RDF>
      <cc:Work
         rdf:about="">
        <dc:title>Orcid logo</dc:title>
      </cc:Work>
    </rdf:RDF>
  </metadata>
</svg>
